src/assets/svg/amazonStore.svg

<svg width="36" height="36" viewBox="0 0 40 40"><path d="M40 20.0303C40.007 15.4018 38.4084 10.9141 35.4768 7.33234C32.5451 3.75059 28.4619 1.29655 23.9233 0.388604C19.3846 -0.519345 14.6716 0.17501 10.5876 2.35329C6.50369 4.53157 3.3017 8.05891 1.52755 12.3339C-0.246586 16.609 -0.483031 21.367 0.858531 25.7969C2.20009 30.2267 5.0366 34.0542 8.88447 36.6266C12.7323 39.199 17.3533 40.3572 21.9596 39.9037C26.5659 39.4502 30.8723 37.4131 34.1446 34.1396C37.8864 30.3966 39.992 25.3229 40 20.0303Z" fill="black"></path><path d="M0.0117073 12.527C-0.0202223 11.4593 0.281964 10.4082 0.876099 9.52044C1.46774 8.67898 2.28995 8.02643 3.24378 7.64133C4.32739 7.20648 5.46542 6.92197 6.62618 6.79573L8.86233 6.59843V6.16623C8.91801 5.4088 8.78231 4.64953 8.46771 3.95828C8.27849 3.69714 8.02524 3.48911 7.73234 3.35417C7.43944 3.21924 7.11675 3.16196 6.7953 3.18784H6.5886C6.06681 3.22555 5.56582 3.40773 5.14168 3.71399C4.73103 4.02485 4.44991 4.47665 4.35246 4.98239C4.34158 5.12107 4.28638 5.25258 4.19502 5.35747C4.10365 5.46237 3.98097 5.5351 3.8451 5.56492L0.951264 5.21728C0.663133 5.14838 0.519068 4.99805 0.519068 4.76629C0.511976 4.707 0.511976 4.64707 0.519068 4.58778C0.617987 3.91104 0.858158 3.26268 1.22398 2.68481C1.5898 2.10694 2.0731 1.61249 2.64246 1.23357C3.82778 0.486994 5.18879 0.0657276 6.5886 0.0121456H7.2275C8.87278 -0.0891107 10.4941 0.44571 11.7562 1.50604C11.926 1.6758 12.0831 1.85795 12.2259 2.05098C12.3494 2.21598 12.4624 2.38857 12.5642 2.56774C12.6685 2.77916 12.7443 3.00347 12.7897 3.23482C12.8586 3.52295 12.9087 3.72339 12.94 3.83613C12.9886 4.07108 13.0138 4.31028 13.0152 4.5502V11.3526C13.0089 11.7643 13.0724 12.1741 13.2031 12.5646C13.2881 12.8434 13.4114 13.109 13.5695 13.3538L14.152 14.1337C14.24 14.251 14.2922 14.3913 14.3024 14.5377C14.3062 14.6136 14.29 14.6891 14.2554 14.7568C14.2208 14.8244 14.1689 14.8817 14.1051 14.9229L11.8125 16.9053C11.7051 16.9806 11.5789 17.0248 11.448 17.0331C11.3171 17.0414 11.1864 17.0134 11.0703 16.9523C10.8491 16.7708 10.6388 16.5763 10.4408 16.3698L10.065 15.9658C9.93408 15.8097 9.81176 15.6466 9.69853 15.4772C9.52941 15.2329 9.4104 15.0701 9.3415 14.9887C8.59325 15.863 7.61772 16.5134 6.52283 16.8678C5.82427 17.0527 5.10309 17.1381 4.38064 17.1214C3.78515 17.1379 3.19238 17.035 2.63729 16.8188C2.08219 16.6026 1.57601 16.2774 1.14857 15.8624C0.74535 15.411 0.436943 14.8831 0.241651 14.3101C0.0463595 13.7371 -0.0318354 13.1308 0.0117073 12.527V12.527ZM4.39004 12.0197C4.35914 12.5902 4.53233 13.153 4.87861 13.6075C5.03947 13.8039 5.24364 13.9605 5.47511 14.0648C5.70658 14.1691 5.95907 14.2184 6.21278 14.2088H6.5886C6.94651 14.1122 7.27943 13.9397 7.56476 13.703C7.85008 13.4663 8.08113 13.171 8.24222 12.8371C8.42947 12.5078 8.56868 12.1534 8.65563 11.7848C8.73654 11.4773 8.7869 11.1626 8.80595 10.8452V9.02248C8.05533 8.99736 7.30444 9.06362 6.56981 9.21978C5.91823 9.33767 5.33188 9.6888 4.92034 10.2075C4.50881 10.7263 4.30025 11.3771 4.33367 12.0384L4.39004 12.0197Z" transform="translate(13.7491 8)" fill="white"></path><path d="M0.0657689 0.0986531C0.147197 -0.0328846 0.281867 -0.0328846 0.469778 0.0986531C4.67746 2.55018 9.46804 3.82247 14.3376 3.78171C17.7043 3.76572 21.0392 3.12868 24.1748 1.9026L24.5412 1.75227L24.8795 1.60194C24.9799 1.5454 25.0982 1.52948 25.21 1.55744C25.3219 1.58539 25.4187 1.65511 25.4808 1.75227C25.6248 1.95271 25.5779 2.13749 25.3398 2.30661C25.1018 2.47573 24.7103 2.73254 24.1654 3.07704C22.638 3.97077 20.9937 4.64749 19.2797 5.08769C17.5641 5.55206 15.7955 5.79208 14.0182 5.80175C11.448 5.81993 8.89758 5.3513 6.50173 4.4206C4.16372 3.50795 2.01147 2.17712 0.150329 0.493266C0.108211 0.464584 0.0729129 0.426993 0.0469348 0.383155C0.0209567 0.339317 0.00493325 0.290304 -2.15047e-07 0.239586C0.0077652 0.187216 0.0306195 0.138244 0.0657689 0.0986531V0.0986531Z" transform="translate(6 27.6724)" fill="#FB9738"></path><path d="M0.017627 1.08079C0.0571547 1.0076 0.107876 0.941022 0.167956 0.883484C0.538897 0.621074 0.951996 0.424059 1.38938 0.300961C2.00287 0.135268 2.63338 0.0406894 3.26849 0.0190938C3.4272 -0.00636487 3.58896 -0.00636487 3.74767 0.0190938C4.51184 0.0879945 4.96909 0.213268 5.11942 0.394915C5.1956 0.532532 5.23142 0.688846 5.22277 0.845903V1.02442C5.19621 1.74976 5.03367 2.46367 4.74359 3.12902C4.46169 3.87752 4.00033 4.54536 3.40003 5.0739C3.33831 5.13227 3.25904 5.1686 3.17454 5.17725H3.07119C2.97097 5.12714 2.94591 5.03319 2.99602 4.89539C3.47871 3.92766 3.79627 2.88606 3.93558 1.81365C3.94586 1.67133 3.90959 1.52953 3.83223 1.40963C3.66311 1.2092 3.1902 1.10898 2.4135 1.10898C2.12536 1.10898 1.78713 1.12464 1.39878 1.15596L0.224329 1.30628C0.150768 1.31444 0.0768629 1.29428 0.017627 1.24991C0.00619894 1.23511 2.67401e-07 1.21694 2.67401e-07 1.19824C2.67401e-07 1.17954 0.00619894 1.16136 0.017627 1.14656C0.0139474 1.12479 0.0139474 1.10256 0.017627 1.08079V1.08079Z" transform="translate(28.7759 27.1226)" fill="#FB9738"></path></svg>

<?xml version="1.0" encoding="UTF-8" standalone="no"?>
<svg width="36" xmlns="http://www.w3.org/2000/svg" viewBox="0 0 40 40" height="36">
 <path d="m40 20.03c0.007-4.628-1.592-9.116-4.523-12.698-2.932-3.5814-7.015-6.0354-11.554-6.9434-4.538-0.90794-9.251-0.21359-13.335 1.9647-4.0843 2.1783-7.2863 5.7056-9.0604 9.9807-1.7742 4.275-2.0106 9.033-0.66907 13.463 1.3416 4.43 4.1781 8.257 8.026 10.83 3.8475 2.572 8.4685 3.73 13.076 3.277 4.606-0.454 8.912-2.491 12.185-5.764 3.741-3.743 5.847-8.817 5.855-14.11z"/>
 <path fill="#fff" d="m0.011707 12.527c-0.031929-1.068 0.27025-2.119 0.86439-3.0066 0.5916-0.8414 1.4139-1.494 2.3677-1.8791 1.0836-0.4348 2.2216-0.7193 3.3824-0.8456l2.2361-0.1973v-0.4322c0.0557-0.7574-0.08-1.5167-0.3946-2.2079-0.1892-0.2612-0.4425-0.4692-0.7354-0.6041-0.2929-0.135-0.6155-0.1922-0.937-0.1664h-0.2067c-0.5218 0.0378-1.0228 0.2199-1.4469 0.5262-0.4107 0.3108-0.6918 0.7626-0.7892 1.2684-0.0109 0.1387-0.0661 0.2702-0.1575 0.3751s-0.214 0.1776-0.3499 0.2074l-2.8938-0.3476c-0.28817-0.0689-0.43223-0.2193-0.43223-0.451-0.00709-0.0593-0.00709-0.1192 0-0.1785 0.09892-0.6768 0.33909-1.3251 0.70493-1.903 0.3658-0.5779 0.8491-1.0723 1.4185-1.4512 1.1853-0.74661 2.5463-1.1679 3.9461-1.2215h0.6389c1.6453-0.10121 3.2665 0.43361 4.5285 1.4939 0.17 0.1698 0.327 0.352 0.47 0.545 0.123 0.165 0.236 0.3376 0.338 0.5167 0.104 0.2115 0.18 0.4358 0.226 0.6671 0.069 0.2882 0.119 0.4886 0.15 0.6013 0.049 0.235 0.074 0.4742 0.075 0.7141v6.8028c-0.006 0.411 0.057 0.821 0.188 1.212 0.085 0.278 0.208 0.544 0.367 0.789l0.582 0.78c0.088 0.117 0.14 0.257 0.15 0.404 0.004 0.076-0.012 0.151-0.047 0.219-0.034 0.067-0.086 0.125-0.15 0.166l-2.293 1.982c-0.107 0.076-0.233 0.12-0.364 0.128s-0.262-0.02-0.378-0.081c-0.221-0.181-0.431-0.376-0.629-0.582l-0.376-0.404c-0.1309-0.156-0.2532-0.319-0.3665-0.489-0.1691-0.244-0.2881-0.407-0.357-0.488-0.7483 0.874-1.7238 1.524-2.8187 1.879-0.6985 0.185-1.4197 0.27-2.1422 0.253-0.5954 0.017-1.1882-0.086-1.7433-0.302s-1.0613-0.542-1.4887-0.957c-0.40325-0.451-0.71166-0.979-0.90695-1.552s-0.27348-1.179-0.22994-1.783zm4.3783-0.507c-0.0309 0.57 0.1423 1.133 0.4886 1.588 0.1609 0.196 0.365 0.352 0.5965 0.457 0.2315 0.104 0.484 0.153 0.7377 0.144h0.3758c0.3579-0.097 0.6908-0.269 0.9762-0.506 0.2853-0.237 0.5163-0.532 0.6774-0.866 0.1873-0.329 0.3265-0.684 0.4134-1.052 0.0809-0.308 0.1313-0.622 0.1504-0.94v-1.8225c-0.7507-0.0251-1.5016 0.0411-2.2362 0.1973-0.6516 0.1179-1.2379 0.469-1.6495 0.9882-0.4115 0.518-0.6201 1.169-0.5866 1.83l0.0563-0.018z" transform="translate(13.749 8)"/>
 <path fill="#FB9738" d="m0.065769 0.098653c0.081431-0.13154 0.2161-0.13154 0.40401 0 4.2077 2.4515 8.9982 3.7238 13.868 3.683 3.366-0.016 6.701-0.653 9.837-1.8791l0.366-0.1503 0.339-0.1504c0.1-0.0565 0.218-0.0724 0.33-0.0445 0.112 0.028 0.209 0.0977 0.271 0.1949 0.144 0.2004 0.097 0.3852-0.141 0.5543s-0.63 0.4259-1.175 0.7704c-1.527 0.8938-3.171 1.5705-4.885 2.0107-1.716 0.4644-3.484 0.7044-5.262 0.7141-2.57 0.0181-5.1204-0.4505-7.5163-1.3812-2.338-0.9126-4.4902-2.2435-6.3514-3.9273-0.04209-0.02872-0.077387-0.06631-0.10336-0.11014-0.025983-0.04384-0.042007-0.09286-0.04694-0.14357 0.0077652-0.05237 0.03062-0.10135 0.065769-0.14094v0.000003z" transform="translate(6 27.672)"/>
 <path fill="#FB9738" d="m0.017627 1.0808c0.039528-0.0732 0.090253-0.13978 0.15033-0.19732 0.37094-0.26241 0.78404-0.45942 1.2214-0.58252 0.6135-0.16569 1.244-0.26027 1.8791-0.28187 0.1587-0.025455 0.3205-0.025455 0.4792 0.000004 0.7641 0.0689 1.2214 0.19418 1.3717 0.37583 0.0762 0.13761 0.112 0.29393 0.1034 0.45098v0.1785c-0.0266 0.7254-0.1891 1.4393-0.4792 2.1046-0.2819 0.7485-0.7433 1.4164-1.3436 1.9449-0.0617 0.0584-0.141 0.0947-0.2255 0.1033h-0.1033c-0.1002-0.0501-0.1253-0.144-0.0752-0.2818 0.4827-0.9677 0.8003-2.0093 0.9396-3.0818 0.0103-0.1423-0.026-0.2841-0.1034-0.404-0.1691-0.2004-0.642-0.3006-1.4187-0.3006-0.2881 0-0.6264 0.0156-1.0147 0.047l-1.1745 0.1503c-0.07353 0.0081-0.14744-0.012-0.20667-0.0564-0.011431-0.0148-0.01763-0.033-0.01763-0.0517 2.674e-7 -0.0187 0.0061989-0.0368 0.017627-0.0516-0.00368-0.0218-0.00368-0.044 0-0.0658z" transform="translate(28.776 27.123)"/>
</svg>
